maotzur:d=8,o=5,b=80:4c5,4g4,4c5,4f5,4e5,4d5,4c.5,g5,4g5,4a5,4d5,e5,f5,4e5,4d5,4c5,4p,4c5,4g4,4c5,4f5,4e5,4d5,4c.5,g5,4g5,4a5,4d5,e5,f5,4e5,4d5,4c.5,g5,4g5,p,g5,4a5,4b5,2c6,2g5,4c6,4b5,4a5,4g5,g5,f5,e5,f5,4d5,4p,4e5,p,f5,4g5,p,a5,4d5,p,e5,2f5,4e5,4c5,4a5,g5,f5,4e5,4f5,4g5,4p,4e5,p,f5,4g5,p,a5,4d5,p,e5,2f5,4e5,4c5,4a5,g5,f5,4e5,4d5,2c5
